src/assets/img/icons/duotone-icons/Devices/SD-card.svg

<?xml version="1.0" encoding="UTF-8"?>
<svg width="24px" height="24px" viewBox="0 0 24 24" version="1.1" xmlns="http://www.w3.org/2000/svg" xmlns:xlink="http://www.w3.org/1999/xlink">
    <!-- Generator: Sketch 52.2 (67145) - http://www.bohemiancoding.com/sketch -->
    <title>Stockholm-icons / Devices / SD-card</title>
    <desc>Created with Sketch.</desc>
    <g id="Stockholm-icons-/-Devices-/-SD-card" stroke="none" stroke-width="1" fill="none" fill-rule="evenodd">
        <rect id="bound" x="0" y="0" width="24" height="24"></rect>
        <path d="M5,5 C5,4.44771525 5.44771525,4 6,4 L15.75,4 C15.9073787,4 16.0555728,4.07409708 16.15,4.2 L18.9,7.86666667 C18.9649111,7.95321475 19,8.05848156 19,8.16666667 L19,19 C19,19.5522847 18.5522847,20 18,20 L6,20 C5.44771525,20 5,19.5522847 5,19 L5,5 Z M7,6 L7,9 L9,9 L9,6 L7,6 Z M10,6 L10,9 L12,9 L12,6 L10,6 Z M13,6 L13,9 L15,9 L15,6 L13,6 Z" id="Combined-Shape" fill="#335EEA"></path>
    </g>
</svg>

<svg width="24" height="24" viewBox="0 0 24 24" xmlns="http://www.w3.org/2000/svg"><g fill="none" fill-rule="evenodd"><path d="M0 0h24v24H0z"/><path d="M5 5a1 1 0 011-1h9.75a.5.5 0 01.4.2l2.75 3.667a.5.5 0 01.1.3V19a1 1 0 01-1 1H6a1 1 0 01-1-1V5zm2 1v3h2V6H7zm3 0v3h2V6h-2zm3 0v3h2V6h-2z" fill="#335EEA"/></g></svg>
